dist/img/svg/youtube-20.svg

<svg width="21" height="15" viewBox="0 0 21 15" fill="none" xmlns="http://www.w3.org/2000/svg">
<path d="M19.8796 2.47278C19.9512 2.75896 20.0108 3.11669 20.0585 3.54596C20.13 3.97524 20.1777 4.40451 20.2016 4.83378C20.2254 5.23921 20.2374 5.62078 20.2374 5.97851C20.2612 6.33624 20.2731 6.63435 20.2731 6.87283V7.19479C20.2731 9.34115 20.142 10.9271 19.8796 11.9526C19.7604 12.358 19.5458 12.7157 19.2357 13.0257C18.9257 13.3358 18.556 13.5504 18.1268 13.6697C17.6736 13.7889 16.8151 13.8843 15.5511 13.9558C14.2872 14.0035 13.1305 14.0393 12.0812 14.0632H10.5072C6.42908 14.0632 3.88921 13.932 2.88758 13.6697C1.95748 13.4073 1.3732 12.835 1.13471 11.9526C1.01547 11.4994 0.920075 10.8794 0.848529 10.0924C0.800832 9.28153 0.765059 8.60185 0.741211 8.05333V7.19479C0.741211 5.07227 0.872378 3.49827 1.13471 2.47278C1.25395 2.04351 1.46859 1.67386 1.77862 1.36383C2.08865 1.0538 2.4583 0.839159 2.88758 0.719916C3.3407 0.600674 4.19924 0.517204 5.46321 0.469507C6.72719 0.397962 7.88384 0.350265 8.93317 0.326416H10.5072C14.5853 0.326416 17.1251 0.457583 18.1268 0.719916C18.556 0.839159 18.9257 1.0538 19.2357 1.36383C19.5458 1.67386 19.7604 2.04351 19.8796 2.47278ZM8.5039 10.1282L13.6194 7.19479L8.5039 4.29719V10.1282Z" fill="white"/>
</svg>

<svg width="21" height="15" viewBox="0 0 21 15" fill="none" xmlns="http://www.w3.org/2000/svg"><path d="M19.88 2.473c.071.286.13.644.178 1.073.072.43.12.859.144 1.288.023.405.035.787.035 1.145.024.357.036.655.036.894v.322c0 2.146-.131 3.732-.393 4.758-.12.405-.334.763-.644 1.073-.31.31-.68.524-1.11.644-.452.119-1.31.214-2.575.286-1.264.048-2.42.083-3.47.107h-1.574c-4.078 0-6.618-.131-7.62-.393-.93-.263-1.514-.835-1.752-1.717-.12-.454-.215-1.074-.286-1.86C.8 9.281.765 8.601.74 8.052v-.858c0-2.123.131-3.697.394-4.722.119-.43.334-.8.644-1.11.31-.31.68-.524 1.109-.643C3.34.6 4.199.517 5.463.47 6.727.398 7.883.35 8.933.326h1.574c4.078 0 6.618.132 7.62.394.429.12.799.334 1.109.644.31.31.524.68.644 1.109zM8.504 10.128l5.115-2.933-5.115-2.898v5.831z" fill="#fff"/></svg>
